assets/itan.svg

<?xml version="1.0" encoding="UTF-8"?>
<svg
   width="150"
   height="178"
   viewBox="0 0 150 150"
   fill="none"
   sodipodi:docname="itan.svg"
   xmlns:sodipodi="http://sodipodi.sourceforge.net/DTD/sodipodi-0.dtd"
   xmlns="http://www.w3.org/2000/svg"
   xmlns:svg="http://www.w3.org/2000/svg">
  <g
     clip-path="url(#clip0_414_95)"
     id="g10"
     transform="scale(0.15)">
    <path
       d="m 530,840 c 41.421,0 75,-33.579 75,-75 0,-41.421 -33.579,-75 -75,-75 -41.421,0 -75,33.579 -75,75 0,41.421 33.579,75 75,75 z"
       fill="#000000"
       id="path4" />
    <path
       fill-rule="evenodd"
       clip-rule="evenodd"
       d="m 400.553,162.5 c 20.71,0 37.5,16.789 37.5,37.5 v 91.947 h 185 V 200 c 0,-20.711 16.789,-37.5 37.5,-37.5 20.71,0 37.5,16.789 37.5,37.5 v 91.947 H 790 c 20.711,0 37.5,16.789 37.5,37.5 0,20.71 -16.789,37.5 -37.5,37.5 h -91.947 v 185 H 790 c 20.711,0 37.5,16.789 37.5,37.5 0,20.71 -16.789,37.5 -37.5,37.5 H 698.053 V 720 c 0,20.711 -16.79,37.5 -37.5,37.5 -20.711,0 -37.5,-16.789 -37.5,-37.5 v -93.053 h -185 V 720 c 0,20.711 -16.79,37.5 -37.5,37.5 -20.711,0 -37.5,-16.789 -37.5,-37.5 V 626.947 H 270 c -20.711,0 -37.5,-16.79 -37.5,-37.5 0,-20.711 16.789,-37.5 37.5,-37.5 h 93.053 v -185 H 270 c -20.711,0 -37.5,-16.79 -37.5,-37.5 0,-20.711 16.789,-37.5 37.5,-37.5 h 93.053 V 200 c 0,-20.711 16.789,-37.5 37.5,-37.5 z m 37.5,204.447 v 185 h 185 v -185 z"
       fill="#000000"
       id="path6" />
    <path
       fill-rule="evenodd"
       clip-rule="evenodd"
       d="M 0,500 C 0,637.35 55.381,761.764 145.031,852.132 H 79.9997 c -27.6142,0 -50,22.386 -50,50 0,27.614 22.3858,50 50,50 H 286.238 C 351.052,982.829 423.521,1000 500,1000 776.142,1000 1000,776.142 1000,500 1000,223.858 776.142,0 500,0 223.858,0 0,223.858 0,500 Z M 500,900 C 720.914,900 900,720.914 900,500 900,279.086 720.914,100 500,100 279.086,100 100,279.086 100,500 c 0,122.658 55.209,232.421 142.132,305.796 V 690 c 0,-27.614 22.386,-50 50,-50 27.614,0 50,22.386 50,50 V 867.641 C 390.565,888.466 443.935,900 500,900 Z"
       fill="#000000"
       id="path8" />
  </g>
</svg>

<svg width="150" height="178" viewBox="0 0 150 150" fill="none" xmlns="http://www.w3.org/2000/svg">
<g clip-path="url(#clip0_807_26)" transform="scale(0.15)">
<path d="M530 840C571.421 840 605 806.421 605 765C605 723.579 571.421 690 530 690C488.579 690 455 723.579 455 765C455 806.421 488.579 840 530 840Z" fill="black"/>
<path fill-rule="evenodd" clip-rule="evenodd" d="M400.553 162.5C421.263 162.5 438.053 179.289 438.053 200V291.947H623.053V200C623.053 179.289 639.842 162.5 660.553 162.5C681.263 162.5 698.053 179.289 698.053 200V291.947H790C810.711 291.947 827.5 308.736 827.5 329.447C827.5 350.157 810.711 366.947 790 366.947H698.053V551.947H790C810.711 551.947 827.5 568.736 827.5 589.447C827.5 610.157 810.711 626.947 790 626.947H698.053V720C698.053 740.711 681.263 757.5 660.553 757.5C639.842 757.5 623.053 740.711 623.053 720V626.947H438.053V720C438.053 740.711 421.263 757.5 400.553 757.5C379.842 757.5 363.053 740.711 363.053 720V626.947H270C249.289 626.947 232.5 610.157 232.5 589.447C232.5 568.736 249.289 551.947 270 551.947H363.053V366.947H270C249.289 366.947 232.5 350.157 232.5 329.447C232.5 308.736 249.289 291.947 270 291.947H363.053V200C363.053 179.289 379.842 162.5 400.553 162.5ZM438.053 366.947V551.947H623.053V366.947H438.053Z" fill="black"/>
<path fill-rule="evenodd" clip-rule="evenodd" d="M0 500C0 637.35 55.381 761.764 145.031 852.132H79.9997C52.3855 852.132 29.9997 874.518 29.9997 902.132C29.9997 929.746 52.3855 952.132 79.9997 952.132H286.238C351.052 982.829 423.521 1000 500 1000C776.142 1000 1000 776.142 1000 500C1000 223.858 776.142 0 500 0C223.858 0 0 223.858 0 500ZM500 900C720.914 900 900 720.914 900 500C900 279.086 720.914 100 500 100C279.086 100 100 279.086 100 500C100 622.658 155.209 732.421 242.132 805.796L242.132 690C242.132 662.386 264.518 640 292.132 640C319.746 640 342.132 662.386 342.132 690V867.641C390.565 888.466 443.935 900 500 900Z" fill="black"/>
<path d="M530 840C571.421 840 605 806.421 605 765C605 723.579 571.421 690 530 690C488.579 690 455 723.579 455 765C455 806.421 488.579 840 530 840Z" stroke="white" stroke-width="10" stroke-linecap="round"/>
<path fill-rule="evenodd" clip-rule="evenodd" d="M400.553 162.5C421.263 162.5 438.053 179.289 438.053 200V291.947H623.053V200C623.053 179.289 639.842 162.5 660.553 162.5C681.263 162.5 698.053 179.289 698.053 200V291.947H790C810.711 291.947 827.5 308.736 827.5 329.447C827.5 350.157 810.711 366.947 790 366.947H698.053V551.947H790C810.711 551.947 827.5 568.736 827.5 589.447C827.5 610.157 810.711 626.947 790 626.947H698.053V720C698.053 740.711 681.263 757.5 660.553 757.5C639.842 757.5 623.053 740.711 623.053 720V626.947H438.053V720C438.053 740.711 421.263 757.5 400.553 757.5C379.842 757.5 363.053 740.711 363.053 720V626.947H270C249.289 626.947 232.5 610.157 232.5 589.447C232.5 568.736 249.289 551.947 270 551.947H363.053V366.947H270C249.289 366.947 232.5 350.157 232.5 329.447C232.5 308.736 249.289 291.947 270 291.947H363.053V200C363.053 179.289 379.842 162.5 400.553 162.5ZM438.053 366.947V551.947H623.053V366.947H438.053Z" stroke="white" stroke-width="10" stroke-linecap="round"/>
<path fill-rule="evenodd" clip-rule="evenodd" d="M0 500C0 637.35 55.381 761.764 145.031 852.132H79.9997C52.3855 852.132 29.9997 874.518 29.9997 902.132C29.9997 929.746 52.3855 952.132 79.9997 952.132H286.238C351.052 982.829 423.521 1000 500 1000C776.142 1000 1000 776.142 1000 500C1000 223.858 776.142 0 500 0C223.858 0 0 223.858 0 500ZM500 900C720.914 900 900 720.914 900 500C900 279.086 720.914 100 500 100C279.086 100 100 279.086 100 500C100 622.658 155.209 732.421 242.132 805.796L242.132 690C242.132 662.386 264.518 640 292.132 640C319.746 640 342.132 662.386 342.132 690V867.641C390.565 888.466 443.935 900 500 900Z" stroke="white" stroke-width="10" stroke-linecap="round"/>
</g>
<defs>
<clipPath id="clip0_807_26">
<rect width="1000" height="1000" fill="white"/>
</clipPath>
</defs>
</svg>
